X:Tulle



*****************************


16400 0 1.7745674 

<starha-arsion 2eu-fration swaiber'svaidtets.
Z:id:hn-reel-40-195
M:C|
K:G
FG~F2 FDC2|eg~ag eAcA|BA~F2 A2


*****************************


16500 0 1.667833 

<startore
Z:huncy-5.
D:O|WaCy (Yoal (1383
H:The ol the padR" Read in th Alel Dre "af tilland s'pal
R:reel


*****************************


16600 0 1.6049666 

<starse-23
M:C|
K:D
d2B>c BAGA|B2AG FDEF|
FDAG AE~g/c/|gfe dedB|B2fd A2cd||
<end>
<start>
